packages/core/src/svgs/tokens/branded/CKB.svg

<svg width="24" height="24" viewBox="0 0 24 24" fill="none" xmlns="http://www.w3.org/2000/svg">
<path d="M2 3.24995V13.8749H5.125V3.24995H2ZM18.8749 10.125V20.7499H22V10.125H18.8749ZM11.9999 3.24995V10.5124L15.125 13.7311V6.37495L11.9999 3.24995ZM8.87498 10.4V17.6249L11.9999 20.7499V13.7562L8.87498 10.4Z" fill="white"/>
<path d="M11.9999 3.24995H15.3312L22 10.125H18.8749L11.9999 3.24995ZM2 13.8749H5.125L11.9999 20.7499H8.66874L2 13.8749Z" fill="#D8D8D8"/>
<path d="M15.1257 6.37508V13.6938L5.12573 3.38133V13.8751L8.87573 17.625V10.5813L18.8757 20.7501V10.1251L15.1257 6.37508Z" fill="#3CC68A"/>
</svg>

<svg xmlns="http://www.w3.org/2000/svg" width="24" height="24" fill="none" viewBox="0 0 24 24">
    <path fill="#fff" d="M2 3.25v10.625h3.125V3.25zm16.875 6.875V20.75H22V10.125zM12 3.25v7.262l3.125 3.22V6.374zM8.875 10.4v7.225L12 20.75v-6.994z"/>
    <path fill="#D8D8D8" d="M12 3.25h3.331L22 10.125h-3.125zM2 13.875h3.125L12 20.75H8.669z"/>
    <path fill="#3CC68A" d="M15.126 6.375v7.319l-10-10.313v10.494l3.75 3.75v-7.044l10 10.17V10.124z"/>
</svg>
